X:1
T:Unde et Memores, 10.10.10.10.10.10
T:Unde et Memores, 10.10.10.10.10.10
T:William Henry Monk, 1875
T:Public Domain Courtesy of the Cyber Hymnal™
C:William Henry Monk, 1875
Z:Public Domain
Z:Courtesy of the Cyber Hymnal™
%%score ( 1 2 ) ( 3 4 )
L:1/8
Q:1/4=110
M:4/4
K:D
V:1 treble 
V:2 treble 
V:3 bass 
V:4 bass 
V:1
 [DF]2 | [DF]3 D D2 [DE]2 | [DF]3 [DF] [DF]2 [CG]2 | [DA]6 [DF]2 | [CE]2 [DF]2 [EG]3 [EG] | %5
 [EG]2 [DF]2 [DA]2 [DF]2 x | [CE]6 [DF]2 | [DF]3 D D2 [DE]2 | [DF]3 [DF] [DF]2 [DG]2 | %9
 [DA]6 [DF]2 | [DB]2 [DA]2 [D^G]3 [DG] | [CA]2 [FB]2 [Ec]2 [DB]2 | [CA]6 [CA]2 | %13
 [Dd]2 [DA]2 [CG]2 [DF]2 | [DB]2 [DB]2 [Dd]2 [GB]2 | [FA]6 [DA]2 | [CG]2 [DF]2 [CE]2 D2 | %17
 [DB]3 [EG] [DF]2 [CE]2 | D6 |] %19
V:2
 x2 | x3 D D2 x2 | x8 | x8 | x8 | x9 | x8 | x3 D D2 x2 | x8 | x8 | x8 | x8 | x8 | x8 | x8 | x8 | %16
 x6 D2 | x8 | D6 |] %19
V:3
 [D,A,]2 | [D,A,]3 [D,F,] [D,F,]2 [D,G,]2 | [D,A,]3 [D,A,] [D,A,]2 [E,A,]2 | [F,A,]6 [D,A,]2 | %4
 [G,A,]2 [F,A,]2 [E,B,]3 [D,B,] | [C,A,]2 [D,A,]2 A,2 z G,, x | [A,,A,]6 [D,A,]2 | %7
 [D,A,]3 [D,F,] [D,F,]2 [D,G,]2 | [D,A,]3 [B,,D,] [B,,D,]2 [B,,E,]2 | [F,,F,]6 [D,A,]2 | %10
 G,2 [F,A,]2 [E,B,]3 [E,B,] | [F,A,]2 [D,A,]2 [E,A,]2 [E,^G,]2 | [A,,A,]6 [G,A,]2 | %13
 [F,A,]2 [F,A,]2 [E,A,]2 [D,A,]2 | [G,,G,]2 [G,,G,]2 [B,,G,]2 [G,,D]2 | [D,D]6 [F,A,]2 | %16
 [E,A,]2 [D,A,]2 [A,,G,]2 [B,,F,]2 | [G,,G,]3 [G,,B,] [A,,A,]2 [A,,G,]2 | [D,F,]6 |] %19
V:4
 x2 | x8 | x8 | x8 | x8 | x4 F,,3 A,2 | x8 | x8 | x8 | x8 | x8 | x8 | x8 | x8 | x8 | x8 | x8 | x8 | %18
 x6 |] %19

